X: 601
T: Presbyterian Hornpipe
M:3/2
L:1/4
S: 8: MCJLSH3 http://www.cpartington.plus.com/links/Walsh.abc
Z: Pete Stewart 2004
B: Walsh "Third Book of the most Celebrated jiggs, Lancashire hornpipes, ..."
K:GMin
GBBGc/B/A/G/ | ^FAAFA2 | GBA/B/c/A/ B/c/d | DGGBAG ||
gbbgba/g/ | faafag/f/ | efgfga | f3edc |
BdfBdf | AcfAcf | GBdGBd | ^F3EDC |
B,DDB,DC/B,/ | A,CCA,CB,/A,/ | G,B,A,CB,D | CED^FG2 ||

%%sep 1 1 500
%%sep 1 1 500
